packages/core/src/svgs/networks/branded/milkomeda-a1.svg

<svg width="24" height="24" viewBox="0 0 24 24" fill="none" xmlns="http://www.w3.org/2000/svg">
<path d="M12.1428 13.3674C13.1634 13.3674 13.9907 12.5443 13.9907 11.5289C13.9907 10.5135 13.1634 9.69043 12.1428 9.69043C11.1222 9.69043 10.2949 10.5135 10.2949 11.5289C10.2949 12.5443 11.1222 13.3674 12.1428 13.3674Z" fill="#FF931E"/>
<path d="M20.5942 9.66317L22 12.0846L14.5948 16.3388C14.5948 16.3388 10.0597 19.0658 6.79907 13.4435L9.10493 12.1198C9.10493 12.1198 10.6033 15.415 13.2004 13.9185C15.7974 12.422 20.5942 9.66317 20.5942 9.66317Z" fill="white"/>
<path d="M3.40589 13.4266L2 11.0052L9.56279 6.66122C9.56279 6.66122 14.098 3.93417 17.3575 9.55643L15.0516 10.8802C15.0516 10.8802 13.5532 7.585 10.9561 9.08147C8.35907 10.5779 3.40589 13.4266 3.40589 13.4266Z" fill="white"/>
<path d="M5.61813 16.2376C6.15111 16.2376 6.58318 15.8078 6.58318 15.2775C6.58318 14.7472 6.15111 14.3174 5.61813 14.3174C5.08515 14.3174 4.65308 14.7472 4.65308 15.2775C4.65308 15.8078 5.08515 16.2376 5.61813 16.2376Z" fill="white"/>
<path d="M18.4995 8.83724C19.0324 8.83724 19.4645 8.40737 19.4645 7.87709C19.4645 7.34682 19.0324 6.91695 18.4995 6.91695C17.9665 6.91695 17.5344 7.34682 17.5344 7.87709C17.5344 8.40737 17.9665 8.83724 18.4995 8.83724Z" fill="white"/>
</svg>

<svg xmlns="http://www.w3.org/2000/svg" width="24" height="24" fill="none" viewBox="0 0 24 24">
    <path fill="#FF931E" d="M12.143 13.367c1.02 0 1.848-.823 1.848-1.838a1.843 1.843 0 0 0-1.848-1.839c-1.02 0-1.848.824-1.848 1.839s.827 1.838 1.848 1.838"/>
    <path fill="#fff" d="M20.594 9.663 22 12.085l-7.405 4.254s-4.535 2.727-7.796-2.895l2.306-1.324s1.498 3.295 4.095 1.799c2.597-1.497 7.394-4.256 7.394-4.256"/>
    <path fill="#fff" d="M3.406 13.427 2 11.005l7.563-4.344s4.535-2.727 7.795 2.895l-2.306 1.324s-1.499-3.295-4.096-1.799c-2.597 1.497-7.55 4.346-7.55 4.346m2.212 2.811c.533 0 .965-.43.965-.96s-.432-.96-.965-.96a.963.963 0 0 0-.965.96c0 .53.432.96.965.96M18.5 8.837c.532 0 .965-.43.965-.96s-.433-.96-.965-.96a.963.963 0 0 0-.966.96c0 .53.433.96.966.96"/>
</svg>
